build/img/SVG/bank.svg

<?xml version="1.0" encoding="utf-8"?>
<!-- Generated by IcoMoon.io -->
<!DOCTYPE svg PUBLIC "-//W3C//DTD SVG 1.1//EN" "http://www.w3.org/Graphics/SVG/1.1/DTD/svg11.dtd">
<svg version="1.1" xmlns="http://www.w3.org/2000/svg" xmlns:xlink="http://www.w3.org/1999/xlink" width="60" height="56" viewBox="0 0 60 56">
<path fill="#444444" d="M30 0l30 12v4h-4q0 0.812-0.641 1.406t-1.516 0.594h-47.688q-0.875 0-1.516-0.594t-0.641-1.406h-4v-4zM8 20h8v24h4v-24h8v24h4v-24h8v24h4v-24h8v24h1.844q0.875 0 1.516 0.594t0.641 1.406v2h-52v-2q0-0.812 0.641-1.406t1.516-0.594h1.844v-24zM57.844 50q0.875 0 1.516 0.594t0.641 1.406v4h-60v-4q0-0.812 0.641-1.406t1.516-0.594h55.688z"></path>
</svg>

<svg xmlns="http://www.w3.org/2000/svg" width="60" height="56" viewBox="0 0 60 56"><path fill="#444" d="M30 0l30 12v4h-4q0 .812-.64 1.406T53.842 18H6.155q-.875 0-1.516-.594T3.997 16h-4v-4zM8 20h8v24h4V20h8v24h4V20h8v24h4V20h8v24h1.844q.875 0 1.516.594T56 46v2H4v-2q0-.812.642-1.406T6.158 44h1.844V20zm49.844 30q.875 0 1.516.594T60 52v4H0v-4q0-.812.642-1.406T2.158 50h55.688z"/></svg>
